svgs/regular/users-viewfinder.svg

<svg xmlns="http://www.w3.org/2000/svg" viewBox="0 0 640 512"><!--! Font Awesome Pro 6.5.1 by @fontawesome - https://fontawesome.com License - https://fontawesome.com/license (Commercial License) Copyright 2023 Fonticons, Inc. --><path d="M48 48v88c0 13.3-10.7 24-24 24s-24-10.7-24-24V32C0 14.3 14.3 0 32 0H136c13.3 0 24 10.7 24 24s-10.7 24-24 24H48zm544 0H504c-13.3 0-24-10.7-24-24s10.7-24 24-24H608c17.7 0 32 14.3 32 32V136c0 13.3-10.7 24-24 24s-24-10.7-24-24V48zM136 464c13.3 0 24 10.7 24 24s-10.7 24-24 24H32c-17.7 0-32-14.3-32-32V376c0-13.3 10.7-24 24-24s24 10.7 24 24v88h88zm456 0V376c0-13.3 10.7-24 24-24s24 10.7 24 24V480c0 17.7-14.3 32-32 32H504c-13.3 0-24-10.7-24-24s10.7-24 24-24h88zM320 208a24 24 0 1 0 0-48 24 24 0 1 0 0 48zm-51.6 82c6.3-1.3 12.9-2 19.6-2h32 32c6.7 0 13.3 .7 19.6 2c1.1 .2 2.2 .5 3.3 .7c23.6 5.8 43.8 20.3 56.9 39.9c1.2 1.7 2.3 3.5 3.3 5.4c8.2 14.1 12.8 30.5 12.8 48c0 17.7-14.3 32-32 32H224c-17.7 0-32-14.3-32-32c0-17.5 4.7-33.9 12.8-48c12.9-22.3 34.6-39 60.3-45.3c1.1-.3 2.2-.5 3.3-.7zm96.2-162.6A72 72 0 1 1 275.4 240.5a72 72 0 1 1 89.2-113.1zM397.3 368c-6.6-18.6-24.4-32-45.3-32H288c-20.9 0-38.7 13.4-45.3 32H397.3zM127.8 176a48 48 0 1 1 96 0 48 48 0 1 1 -96 0zM96 309.3c0-29.5 23.9-53.3 53.3-53.3h69.3c9.8 0 18.9 2.6 26.8 7.2c-34.6 12.2-62.5 38.9-76.2 72.8H122.7C107.9 336 96 324.1 96 309.3zM470.7 336c-13.7-33.9-41.5-60.6-76.2-72.8c7.9-4.6 17-7.2 26.8-7.2h69.3c29.5 0 53.3 23.9 53.3 53.3c0 14.7-11.9 26.7-26.7 26.7H470.7zM416 176a48 48 0 1 1 96 0 48 48 0 1 1 -96 0z"/></svg>

<svg xmlns="http://www.w3.org/2000/svg" viewBox="0 0 640 512"><!--! Font Awesome Pro 6.1.1 by @fontawesome - https://fontawesome.com License - https://fontawesome.com/license (Commercial License) Copyright 2022 Fonticons, Inc. --><path d="M48 136C48 149.3 37.25 160 24 160C10.75 160 0 149.3 0 136V32C0 14.33 14.33 0 32 0H136C149.3 0 160 10.75 160 24C160 37.25 149.3 48 136 48H48V136zM592 48H504C490.7 48 480 37.25 480 24C480 10.75 490.7 0 504 0H608C625.7 0 640 14.33 640 32V136C640 149.3 629.3 160 616 160C602.7 160 592 149.3 592 136V48zM160 488C160 501.3 149.3 512 136 512H32C14.33 512 0 497.7 0 480V376C0 362.7 10.75 352 24 352C37.25 352 48 362.7 48 376V464H136C149.3 464 160 474.7 160 488zM592 376C592 362.7 602.7 352 616 352C629.3 352 640 362.7 640 376V480C640 497.7 625.7 512 608 512H504C490.7 512 480 501.3 480 488C480 474.7 490.7 464 504 464H592V376zM268.4 290C274.7 288.7 281.3 288 288 288H352C358.7 288 365.3 288.7 371.6 290C372.7 290.2 373.8 290.5 374.9 290.7C398.5 296.5 418.7 311 431.8 330.6C432.1 332.4 434.1 334.2 435.2 336C443.3 350.1 448 366.5 448 384C448 401.7 433.7 416 416 416H224C206.3 416 192 401.7 192 384C192 366.5 196.7 350.1 204.8 336C217.8 313.7 239.4 297 265.1 290.7C266.2 290.5 267.3 290.2 268.4 290zM397.3 368C390.7 349.4 372.9 336 352 336H288C267.1 336 249.3 349.4 242.7 368H397.3zM248 184C248 144.2 280.2 112 320 112C359.8 112 392 144.2 392 184C392 206.9 381.3 227.4 364.6 240.5C360.7 243.6 356.5 246.3 352 248.5C342.4 253.3 331.5 256 320 256C308.5 256 297.6 253.3 288 248.5C283.5 246.3 279.3 243.6 275.4 240.5C258.7 227.4 248 206.9 248 184V184zM320 208C333.3 208 344 197.3 344 184C344 170.7 333.3 160 320 160C306.7 160 296 170.7 296 184C296 197.3 306.7 208 320 208zM223.8 176C223.8 202.5 202.3 224 175.8 224C149.3 224 127.8 202.5 127.8 176C127.8 149.5 149.3 128 175.8 128C202.3 128 223.8 149.5 223.8 176zM96 309.3C96 279.9 119.9 256 149.3 256H218.7C228.4 256 237.6 258.6 245.5 263.2C210.8 275.4 183 302.1 169.3 336H122.7C107.9 336 96 324.1 96 309.3V309.3zM394.5 263.2C402.4 258.6 411.6 256 421.3 256H490.7C520.1 256 544 279.9 544 309.3C544 324.1 532.1 336 517.3 336H470.7C456.1 302.1 429.2 275.4 394.5 263.2zM512 176C512 202.5 490.5 224 464 224C437.5 224 416 202.5 416 176C416 149.5 437.5 128 464 128C490.5 128 512 149.5 512 176z"/></svg>
